static/assets/template/assets/img/icons/essential/detailed/Coupon_2.svg

<svg height="135" viewBox="0 0 149 135" width="149" xmlns="http://www.w3.org/2000/svg"><g fill="none" fill-rule="evenodd"><g transform="translate(1 2)"><path d="m96 11.1 18.1 4.1c6.3 1.4 11.2 6.4 12.7 12.7l7.9 34.6c1.1 3.4.2 7.2-2.3 9.7l-48.9 48.9c-.5.5-1.1 1.1-1.7 1.6-1 .9-2.1 1.7-3.2 2.4-12.3 8.3-29.1 7.3-40.3-3.1-.3-.3-.7-.6-1-.9l-34.6-34.6c-.5-.5-.8-1-1.1-1.5-1.5-2.6-1.1-6.1 1.1-8.3l67.1-67.1c2.5-2.5 6.3-3.4 9.7-2.3l2.7.6" fill-rule="nonzero"/><path d="m88.7 9.5 2.4.5" fill-rule="nonzero"/><path d="m127.9 75.8-48.9 48.9c-.2.2-.3.3-.5.5-12.3 8.3-29.1 7.3-40.3-3.1-.3-.3-.7-.6-1-.9l-34.6-34.6c-.5-.5-.8-1-1.1-1.5.2-.3.5-.6.7-.8l67.1-67.1c2.5-2.5 6.2-3.5 9.5-2.5l33.3 6.6c6.1 1.2 10.7 5.8 11.9 11.9l6.6 33.3c.9 3.1-.1 6.7-2.7 9.3z" fill-rule="nonzero"/><path d="m81.4 123c-12.5 10.5-31 10.2-43.1-.9-.3-.3-.7-.6-1-.9l-34.6-34.6c-2.7-2.7-2.7-7.1 0-9.8l67.1-67.1c2.5-2.5 6.3-3.4 9.7-2.3l1.2.3" stroke-linecap="round" stroke-linejoin="round" stroke-width="3"/><path d="m94.9 10.9 19.1 4.4c6.3 1.4 11.2 6.4 12.7 12.7l7.9 34.6c1.1 3.4.2 7.2-2.3 9.7l-42.1 42.1" stroke-linecap="round" stroke-linejoin="round" stroke-width="3"/><circle cx="103.4543" cy="38.4819" fill-rule="nonzero" r="10.3999" transform="matrix(.70710678 -.70710678 .70710678 .70710678 3.09025 84.424325)"/><g stroke-linecap="round" stroke-linejoin="round" stroke-width="3"><path d="m111.3 45.3c-.2.2-.3.3-.5.5-3.2 3.2-7.9 3.9-11.7 2.1"/><path d="m110.8 31.2c2.6 2.6 3.5 6.2 2.8 9.5"/><path d="m94.6 43.8c-2.4-4-1.8-9.2 1.6-12.6 2.5-2.5 6-3.5 9.3-2.8"/><path d="m110.8 45c-.4-.2-.8-.5-1.3-.7-1.5-.7-3-1.7-4.2-2.9-7.5-7.5-5.3-21.7 4.8-31.9 10.1-10.1 24.4-12.3 31.9-4.8s5.3 21.7-4.8 31.9c-2.2 2.2-4.7 4.1-7.2 5.5"/></g><path d="m81.7 122.7c-1.1 1-2.3 1.9-3.6 2.7-11 7.2-25.5 7-36.4-.5-1.2-.8-2.4-1.8-3.5-2.8.2 0 .4-.1.7-.1 6 .2 13.6-1.6 18.7-4.8 2.6-1.7 6-1.6 8.4.3 5.1 4.1 11.1 5.2 15.7 5.2z" fill-rule="nonzero"/><path d="m78.2 125.4c-11 7.2-25.5 7-36.4-.5 5.4-.3 11.5-2 15.8-4.8 2.6-1.7 6-1.6 8.4.3 3.9 3.1 8.3 4.5 12.2 5z" fill-rule="nonzero"/><path d="m81.7 122.7c-12.5 10.8-31.2 10.6-43.5-.6.2-.1.4-.1.7-.1 6 .2 13.6-1.6 18.7-4.8 2.6-1.7 6-1.6 8.4.3 5.1 4.1 11.1 5.2 15.7 5.2z" stroke-linecap="round" stroke-linejoin="round" stroke-width="3"/></g><g transform="translate(37 43)"><circle cx="29.9" cy="10.8" fill-rule="nonzero" r="10.3"/><circle cx="29.9" cy="56.6" fill-rule="nonzero" r="10.3"/><path d="m56.1 37.5h-51.5c-1.8 0-3.3-1.5-3.3-3.3s1.5-3.3 3.3-3.3h51.5c1.8 0 3.3 1.5 3.3 3.3s-1.5 3.3-3.3 3.3z" fill-rule="nonzero"/><g stroke-linecap="round" stroke-linejoin="round" stroke-width="3"><path d="m40.4 37.9h-35.9c-2.1 0-3.8-1.7-3.8-3.8s1.7-3.8 3.8-3.8h4.1"/><path d="m21.8 30.2h33.3c2.1 0 3.8 1.7 3.8 3.8s-1.7 3.8-3.8 3.8h-2.3"/><path d="m35.8 65.3c-1.7 1.2-3.8 1.9-6 1.9-5.9 0-10.7-4.8-10.7-10.7 0-.4 0-.8.1-1.3m4.3-7.3c1.8-1.3 3.9-2 6.2-2 5.9 0 10.7 4.8 10.7 10.7 0 .4 0 .8-.1 1.2m-6.2.2c.2-.5.2-1 .2-1.5 0-2.5-2.1-4.6-4.6-4.6s-4.6 2.1-4.6 4.6c0 1.9 1.2 3.6 2.9 4.3"/><path d="m28.4.9c.5-.1.9-.1 1.4-.1 5.9 0 10.7 4.8 10.7 10.7s-4.8 10.7-10.7 10.7-10.7-4.8-10.7-10.7c0-.2 0-.3 0-.5zm-4.9 2c.1-.1.1-.1.2-.2zm6.3 4c-2.5 0-4.6 2.1-4.6 4.6s2.1 4.6 4.6 4.6 4.6-2.1 4.6-4.6-2.1-4.6-4.6-4.6z"/></g></g></g></svg>

<?xml version="1.0" encoding="UTF-8"?>
<svg width="149px" height="135px" viewBox="0 0 149 135" version="1.1" xmlns="http://www.w3.org/2000/svg" xmlns:xlink="http://www.w3.org/1999/xlink">
    <!-- Generator: Sketch 51.2 (57519) - http://www.bohemiancoding.com/sketch -->
    <title>Coupon_2</title>
    <desc>Created with Sketch.</desc>
    <defs></defs>
    <g id="Page-1" stroke="none" stroke-width="1" fill="none" fill-rule="evenodd">
        <g id="Coupon_2" transform="translate(1.000000, 2.000000)">
            <g id="Group">
                <path d="M96,11.1 L114.1,15.2 C120.4,16.6 125.3,21.6 126.8,27.9 L134.7,62.5 C135.8,65.9 134.9,69.7 132.4,72.2 L83.5,121.1 C83,121.6 82.4,122.2 81.8,122.7 C80.8,123.6 79.7,124.4 78.6,125.1 C66.3,133.4 49.5,132.4 38.3,122 C38,121.7 37.6,121.4 37.3,121.1 L2.7,86.5 C2.2,86 1.9,85.5 1.6,85 C0.1,82.4 0.5,78.9 2.7,76.7 L69.8,9.6 C72.3,7.1 76.1,6.2 79.5,7.3 L82.2,7.9" id="Shape" class="fill-neutral" fill-rule="nonzero"></path>
                <path d="M88.7,9.5 L91.1,10" id="Shape" class="fill-neutral" fill-rule="nonzero"></path>
                <path d="M127.9,75.8 L79,124.7 C78.8,124.9 78.7,125 78.5,125.2 C66.2,133.5 49.4,132.5 38.2,122.1 C37.9,121.8 37.5,121.5 37.2,121.2 L2.6,86.6 C2.1,86.1 1.8,85.6 1.5,85.1 C1.7,84.8 2,84.5 2.2,84.3 L69.3,17.2 C71.8,14.7 75.5,13.7 78.8,14.7 L112.1,21.3 C118.2,22.5 122.8,27.1 124,33.2 L130.6,66.5 C131.5,69.6 130.5,73.2 127.9,75.8 Z" id="Shape" class="fill-primary-100" fill-rule="nonzero"></path>
                <path d="M81.4,123 C68.9,133.5 50.4,133.2 38.3,122.1 C38,121.8 37.6,121.5 37.3,121.2 L2.7,86.6 C4.54747351e-13,83.9 4.54747351e-13,79.5 2.7,76.8 L69.8,9.7 C72.3,7.2 76.1,6.3 79.5,7.4 L80.7,7.7" id="Shape" class="stroke-primary" stroke-width="3" stroke-linecap="round" stroke-linejoin="round"></path>
                <path d="M94.9,10.9 L114,15.3 C120.3,16.7 125.2,21.7 126.7,28 L134.6,62.6 C135.7,66 134.8,69.8 132.3,72.3 L90.2,114.4" id="Shape" class="stroke-primary" stroke-width="3" stroke-linecap="round" stroke-linejoin="round"></path>
                <circle id="Oval" class="fill-neutral" fill-rule="nonzero" transform="translate(103.454300, 38.481900) rotate(-45.000000) translate(-103.454300, -38.481900) " cx="103.4543" cy="38.4819" r="10.3999003"></circle>
                <path d="M111.3,45.3 C111.1,45.5 111,45.6 110.8,45.8 C107.6,49 102.9,49.7 99.1,47.9" id="Shape" class="stroke-primary" stroke-width="3" stroke-linecap="round" stroke-linejoin="round"></path>
                <path d="M110.8,31.2 C113.4,33.8 114.3,37.4 113.6,40.7" id="Shape" class="stroke-primary" stroke-width="3" stroke-linecap="round" stroke-linejoin="round"></path>
                <path d="M94.6,43.8 C92.2,39.8 92.8,34.6 96.2,31.2 C98.7,28.7 102.2,27.7 105.5,28.4" id="Shape" class="stroke-primary" stroke-width="3" stroke-linecap="round" stroke-linejoin="round"></path>
                <path d="M110.8,45 C110.4,44.8 110,44.5 109.5,44.3 C108,43.6 106.5,42.6 105.3,41.4 C97.8,33.9 100,19.7 110.1,9.5 C120.2,-0.6 134.5,-2.8 142,4.7 C149.5,12.2 147.3,26.4 137.2,36.6 C135,38.8 132.5,40.7 130,42.1" id="Shape" class="stroke-primary" stroke-width="3" stroke-linecap="round" stroke-linejoin="round"></path>
                <path d="M81.7,122.7 C80.6,123.7 79.4,124.6 78.1,125.4 C67.1,132.6 52.6,132.4 41.7,124.9 C40.5,124.1 39.3,123.1 38.2,122.1 C38.4,122.1 38.6,122 38.9,122 C44.9,122.2 52.5,120.4 57.6,117.2 C60.2,115.5 63.6,115.6 66,117.5 C71.1,121.6 77.1,122.7 81.7,122.7 Z" id="Shape" class="fill-neutral" fill-rule="nonzero"></path>
                <path d="M78.2,125.4 C67.2,132.6 52.7,132.4 41.8,124.9 C47.2,124.6 53.3,122.9 57.6,120.1 C60.2,118.4 63.6,118.5 66,120.4 C69.9,123.5 74.3,124.9 78.2,125.4 Z" id="Shape" class="fill-primary-300" fill-rule="nonzero"></path>
                <path d="M81.7,122.7 C69.2,133.5 50.5,133.3 38.2,122.1 C38.4,122 38.6,122 38.9,122 C44.9,122.2 52.5,120.4 57.6,117.2 C60.2,115.5 63.6,115.6 66,117.5 C71.1,121.6 77.1,122.7 81.7,122.7 Z" id="Shape" class="stroke-primary" stroke-width="3" stroke-linecap="round" stroke-linejoin="round"></path>
            </g>
            <g id="Group" transform="translate(36.000000, 41.000000)">
                <circle id="Oval" class="fill-neutral" fill-rule="nonzero" cx="29.9" cy="10.8" r="10.3"></circle>
                <circle id="Oval" class="fill-neutral" fill-rule="nonzero" cx="29.9" cy="56.6" r="10.3"></circle>
                <path d="M56.1,37.5 L4.6,37.5 C2.8,37.5 1.3,36 1.3,34.2 C1.3,32.4 2.8,30.9 4.6,30.9 L56.1,30.9 C57.9,30.9 59.4,32.4 59.4,34.2 C59.4,36 57.9,37.5 56.1,37.5 Z" id="Shape" class="fill-neutral" fill-rule="nonzero"></path>
                <path d="M40.4,37.9 L4.5,37.9 C2.4,37.9 0.7,36.2 0.7,34.1 C0.7,32 2.4,30.3 4.5,30.3 L8.6,30.3" id="Shape" class="stroke-primary" stroke-width="3" stroke-linecap="round" stroke-linejoin="round"></path>
                <path d="M21.8,30.2 L55.1,30.2 C57.2,30.2 58.9,31.9 58.9,34 C58.9,36.1 57.2,37.8 55.1,37.8 L52.8,37.8" id="Shape" class="stroke-primary" stroke-width="3" stroke-linecap="round" stroke-linejoin="round"></path>
                <path d="M35.8,65.3 C34.1,66.5 32,67.2 29.8,67.2 C23.9,67.2 19.1,62.4 19.1,56.5 C19.1,56.1 19.1,55.7 19.2,55.2 M23.5,47.9 C25.3,46.6 27.4,45.9 29.7,45.9 C35.6,45.9 40.4,50.7 40.4,56.6 C40.4,57 40.4,57.4 40.3,57.8 M34.1,58 C34.3,57.5 34.3,57 34.3,56.5 C34.3,54 32.2,51.9 29.7,51.9 C27.2,51.9 25.1,54 25.1,56.5 C25.1,58.4 26.3,60.1 28,60.8" id="Shape" class="stroke-primary" stroke-width="3" stroke-linecap="round" stroke-linejoin="round"></path>
                <path d="M28.4,0.9 C28.9,0.8 29.3,0.8 29.8,0.8 C35.7,0.8 40.5,5.6 40.5,11.5 C40.5,17.4 35.7,22.2 29.8,22.2 C23.9,22.2 19.1,17.4 19.1,11.5 C19.1,11.3 19.1,11.2 19.1,11 L28.4,0.9 Z M23.5,2.9 C23.6,2.8 23.6,2.8 23.7,2.7 L23.5,2.9 Z M29.8,6.9 C27.3,6.9 25.2,9 25.2,11.5 C25.2,14 27.3,16.1 29.8,16.1 C32.3,16.1 34.4,14 34.4,11.5 C34.4,9 32.3,6.9 29.8,6.9 Z" id="Shape" class="stroke-primary" stroke-width="3" stroke-linecap="round" stroke-linejoin="round"></path>
            </g>
        </g>
    </g>
</svg>
